X:456
T:Tugboat
C:
N:Transcribed by Tristan Scroggins Based on Benny Thomasson's version from "Legendary Texas Fiddler"
R:bluegrass
L:1/8
Q:1/4=140
M:4/4
K:G
ef | g2 [g2B2] [g2d2] [g2B2] | ^a=a gb ag ed | ge dg ed ge | fa gb ag ed | ge dg ed ge | 
^a=a gb ag ed | gb ge fg ed | BG AF GE DB, | G,2 ge dg ed | gd bg ag ed | ge dg ed ge | 
fa gb ag ed | g2 B2 d2 B2 | ^a=a gb ag ed | gb ge fg ed | BG AG z3[AD] |: [d2B2] [dB][dA] [d2B2] [dB][dA] | 
Bg ed BG A^A | ^A/B3/2 [dB][d=A] [dB]g ed | BG AG EF GE | DB, DG EF GA | Bd ce dg ed | 
gb ge fg ed |1 BG AG G,3[AD] :|2 BG AG G,4 | z8 | 


